demos/KANBAN/public/icons/Home.svg

<svg width="24" height="24" viewBox="0 0 24 24" fill="none" xmlns="http://www.w3.org/2000/svg">
<path d="M10 21H5C3.89543 21 3 20.1046 3 19V12.2969C3 11.7852 3.19615 11.2929 3.54809 10.9215L10.5481 3.53257C11.3369 2.69989 12.663 2.69989 13.4519 3.53257L20.4519 10.9215C20.8038 11.2929 21 11.7852 21 12.2969V19C21 20.1046 20.1046 21 19 21H14M10 21V15.5C10 15.2239 10.2239 15 10.5 15H13.5C13.7761 15 14 15.2239 14 15.5V21M10 21H14" stroke="#5D6679" stroke-width="1.5"/>
</svg>

<svg xmlns="http://www.w3.org/2000/svg" width="24" height="24" fill="none"><path stroke="#5D6679" stroke-width="1.5" d="M10 21H5a2 2 0 0 1-2-2v-6.703a2 2 0 0 1 .548-1.376l7-7.388a2 2 0 0 1 2.904 0l7 7.389A2 2 0 0 1 21 12.296V19a2 2 0 0 1-2 2h-5m-4 0v-5.5a.5.5 0 0 1 .5-.5h3a.5.5 0 0 1 .5.5V21m-4 0h4"/></svg>
